X:897
T:Schottis
T:"Pater Katt" (Pas de quatre) efter Pelle Fors
R:Schottis
O:Vikbolandet, Östergötland
S:efter Pelle Fors
B:Låtar efter Pelle Fors
Z:Björn Ek 2009-01-01
M:4/4
L:1/8
K:G
%
|:(3ded B>d g2 B2|(3BcB A>c e4 |D>E F>G A>B c>d|e>d ^c>d B4|
(3ded B>d g2 B2  |(3BcB A>c e3e|f>e d>c d>c B>A|G2 G2 G4  :|
%
|:b>a g>f e>d c>B|A2 E2 A2 A>G|F>D F>A c2 B>c|e>d B>G D4|
b>a g>f e>d c>B  |A2 E2 A2 A>G|F>D F>A d2 F2 |G2 G2 G4 :|
%
(:musicend:)

(:music:)
